blockchains/binance/logo.svg

<svg fill="none" height="232" viewBox="0 0 232 232" width="232" xmlns="http://www.w3.org/2000/svg"><path d="m116.005 231.555c63.819 0 115.555-51.736 115.555-115.556 0-63.8196-51.736-115.555763-115.555-115.555763-63.8198 0-115.555781 51.736163-115.555781 115.555763 0 63.82 51.735981 115.556 115.555781 115.556z" fill="#000"/><g fill="#f3ba2f"><path d="m86.0841 103.705 29.9219-29.9225 29.937 29.9355 17.41-17.4105-47.347-47.3456-47.331 47.3314 17.4097 17.4107zm-47.1144 12.294 17.4109-17.4137 17.4097 17.4097-17.4109 17.411zm47.1144 12.295 29.9219 29.921 29.936-29.935 17.42 17.401-.009.01-47.347 47.345-47.331-47.332-.0246-.024 17.4355-17.387zm72.1379-12.288 17.411-17.4108 17.41 17.4098-17.41 17.411z"/><path d="m133.662 115.99h.007l-17.665-17.6674-13.057 13.0544-1.5 1.5-3.0942 3.095-.0247.024.0247.025 17.6512 17.654 17.667-17.667.008-.01-.016-.008"/></g></svg>

<svg width="232" height="232" viewBox="0 0 232 232" fill="none" xmlns="http://www.w3.org/2000/svg">
<path d="M116.005 231.555C179.824 231.555 231.56 179.819 231.56 115.999C231.56 52.1794 179.824 0.443237 116.005 0.443237C52.1852 0.443237 0.449219 52.1794 0.449219 115.999C0.449219 179.819 52.1852 231.555 116.005 231.555Z" fill="black"/>
<path d="M86.0841 103.705L116.006 73.7825L145.943 103.718L163.353 86.3075L116.006 38.9619L68.675 86.2933L86.0847 103.704L86.0841 103.705ZM38.9697 115.999L56.3806 98.5853L73.7903 115.995L56.3794 133.406L38.9697 115.999ZM86.0841 128.294L116.006 158.215L145.942 128.28L163.362 145.681L163.353 145.691L116.006 193.036L68.675 145.704L68.6504 145.68L86.0859 128.293L86.0841 128.294ZM158.222 116.006L175.633 98.5952L193.043 116.005L175.633 133.416L158.222 116.006Z" fill="#F3BA2F"/>
<path d="M133.662 115.99H133.669L116.004 98.3226L102.947 111.377L101.447 112.877L98.3528 115.972L98.3281 115.996L98.3528 116.021L116.004 133.675L133.671 116.008L133.679 115.998L133.663 115.99" fill="#F3BA2F"/>
</svg>
